X:1
T:Anvern, LM
T:Anvern, LM
T:Arranged by Lowell Mason, 1840
T:Public Domain Courtesy of the Cyber Hymnal™
C:Arranged by Lowell Mason, 1840
Z:Public Domain
Z:Courtesy of the Cyber Hymnal™
%%score ( 1 2 ) ( 3 4 )
L:1/8
Q:1/4=90
M:3/4
K:F
V:1 treble 
V:2 treble 
V:3 bass 
V:4 bass 
V:1
 CC [CF] | [FA]3 [CF] [DG][CE] | [CF]3 [CF] [CF][FA] | [Ac]3 [FA] [GB][EG] | %4
 !fermata![FA]2 z F FF | [Fd]3 [Fd] [Ff][Fd] | (c2 A)[Ac] c[Fc] | [Ec][GB] [EG]2 ([EG][GB]) | %8
 (A2 c)[Fc] [Af][FA] | [Ec][EB] [EG]2 (Gc)"^rit." | [Fc]2 !fermata![FA] |] %11
V:2
 CC x | x6 | x6 | x6 | x3 F FF | x6 | F3 c x2 | x6 | F3 x3 | x4 E2 | x3 |] %11
V:3
 [F,A,][F,A,] [F,A,] | [F,C]3 [A,,C] [B,,B,][C,G,] | [F,A,]3 [F,A,] [F,A,][F,C] | %3
 [F,F]3 [F,C] [B,,D][C,C] | !fermata![F,C]2 z F, F,F, | [B,,B,]3 [B,,B,] [B,,D][B,,B,] | %6
 (A,2 C)[F,C] [A,F][F,A,] | [C,G,][C,C] [C,C]2 [C,C]2 | (C2 A,)[F,A,] [F,C][F,C] | %9
 [C,C][C,G,] [C,C]2 (CG,) | [F,A,]2 !fermata![F,C] |] %11
V:4
 x3 | x6 | x6 | x6 | x3 F, F,F, | x6 | F,3 x3 | x6 | F,3 x3 | x4 C,2 | x3 |] %11

